X:1
T:Title
%%score { ( 1 3 ) | ( 2 4 ) }
L:1/8
Q:1/4=84
M:6/8
K:C
V:1 treble nm="Grand Piano"
V:3 treble 
V:2 treble 
V:4 treble 
V:1
 EFG GAG | cBA G2 G | A2 A G2 E | GFE D3 |[M:1/8] C/D/ |[M:3/4] EE FG AG | cB A G2 G | A2 A G2 G | %8
w: L.~H.~Baker * * * * *||||||||
 GA B c3 | [EG][EG] [EG] [Ec]2 [EG] | [FA]2 [Fc] [EG]3 | [EG][FA] [EG][G,EG] [G,DF][G,CE] | %12
w: ||||
 D-[B,D] [CE] [DF]3 | [EG][EG] [EG] [Ec]2 [EG] | [FA]2 [Fc] [EG]2 G | GA GG A[FB] | [Ec]6 |] %17
w: |||||
V:2
 CDE EFE | EDC C2 E | F2 F E2 B, | C2 C[K:bass] B,3 |[M:1/8] z/[K:treble] B,/ |[M:3/4] CC DE FE | %6
 ED C C2 E | F2 F E2 E | DD D E3 | [C,C][C,C] [C,G,] [C,G,]2 [C,G,] | [F,C]2 [F,C] [C,C]3 | %11
 [C,C][C,C] [C,C]C, C,C, | z G, A, B,3 | [C,C][C,C] [C,G,] [C,G,]2 [C,G,] | %14
 [F,C]2 [F,C] [C,C]2[K:treble] [G,CE] | [G,CE][G,CF] [G,CE][G,B,F] [G,CF][K:bass][G,,G,] | %16
 [C,G,]6 |] %17
V:3
 x6 | x6 | x6 | x6 |[M:1/8] x |[M:3/4] x6 | x6 | x6 | x6 | x6 | x6 | x6 | .[G,B,]2 z2 z2 | x6 | %14
 x6 | x6 | x6 |] %17
V:4
 x6 | x6 | x6 | x3[K:bass] x3 |[M:1/8] x/[K:treble] x/ |[M:3/4] x6 | x6 | x6 | x6 | x6 | x6 | x6 | %12
 G,,6 | x6 | x5[K:treble] x | x5[K:bass] x | x6 |] %17

